public/images/logo.svg

<svg width="146" height="34" viewBox="0 0 146 34" fill="none" xmlns="http://www.w3.org/2000/svg">
<path d="M3.0948 19.5574L3.09503 12.0219C3.09508 10.3522 3.977 8.80672 5.41445 7.95731L13.6767 3.07503C15.1583 2.19953 16.9989 2.19953 18.4805 3.07503L26.7426 7.95726C28.1801 8.8067 29.062 10.3522 29.062 12.022L29.062 21.978C29.062 23.6477 28.1801 25.1933 26.7426 26.0427L18.4804 30.9249C16.9988 31.8004 15.1583 31.8004 13.6767 30.925L6.34102 26.5903" stroke="#9246FF" stroke-width="4.72131" stroke-linecap="round" stroke-linejoin="round"/>
<circle cx="16.0784" cy="16.9998" r="5.90164" stroke="#0CC4FF" stroke-width="4.72131"/>
<path fill-rule="evenodd" clip-rule="evenodd" d="M13.3448 22.9234L8.00739 28.2609C7.0855 29.1828 5.59081 29.1828 4.66892 28.2609C3.74702 27.339 3.74702 25.8443 4.66892 24.9224L10.0063 19.585L13.3448 22.9234Z" fill="#0CC4FF"/>
<path d="M53.0892 15.0593C53.1257 15.4964 53.1439 16.1434 53.1439 17.0002C53.1439 17.8571 53.1257 18.5041 53.0892 18.9412C52.9432 21.2319 52.2044 23.0155 50.8727 24.292C49.541 25.5511 47.5982 26.1806 45.0442 26.1806H38.1485C37.9478 26.1806 37.7745 26.1106 37.6286 25.9707C37.4826 25.8308 37.4097 25.6647 37.4097 25.4724V8.52811C37.4097 8.33576 37.4826 8.16964 37.6286 8.02975C37.7745 7.88986 37.9478 7.81991 38.1485 7.81991H44.9074C47.5161 7.81991 49.4954 8.45816 50.8453 9.73467C52.1953 10.9937 52.9432 12.7685 53.0892 15.0593ZM41.1038 11.0986V22.9019H44.9074C46.3485 22.9019 47.434 22.5434 48.1637 21.8265C48.9116 21.1095 49.3221 20.1478 49.3951 18.9412C49.4315 18.5041 49.4498 17.8571 49.4498 17.0002C49.4498 16.1434 49.4315 15.4964 49.3951 15.0593C49.3221 13.8527 48.9025 12.891 48.1363 12.174C47.3884 11.4571 46.2664 11.0986 44.7706 11.0986H41.1038Z" fill="white"/>
<path d="M61.3285 12.2789C62.6602 12.2789 63.8368 12.5849 64.8584 13.197C65.88 13.7915 66.6644 14.5959 67.2117 15.6101C67.7772 16.6243 68.06 17.7347 68.06 18.9412V20.1216C68.06 20.3139 67.987 20.48 67.8411 20.6199C67.6951 20.7598 67.5218 20.8297 67.3212 20.8297H58.1816C58.1816 21.5817 58.4918 22.1849 59.112 22.6396C59.7323 23.0767 60.4711 23.2953 61.3285 23.2953C62.3318 23.2953 63.1071 23.0942 63.6544 22.692C63.8551 22.5522 64.0193 22.456 64.147 22.4035C64.2747 22.3511 64.448 22.3248 64.6669 22.3248H66.856C67.0567 22.3248 67.23 22.3948 67.3759 22.5347C67.5218 22.6571 67.5948 22.8057 67.5948 22.9806C67.5948 23.3478 67.3394 23.8112 66.8286 24.3707C66.3361 24.9303 65.6155 25.4199 64.6669 25.8396C63.7183 26.2418 62.6055 26.4429 61.3285 26.4429C59.9785 26.4429 58.7928 26.1456 57.7712 25.5511C56.7678 24.9565 55.9925 24.1259 55.4452 23.0593C54.898 21.9926 54.6243 20.7598 54.6243 19.3609C54.6243 18.0494 54.898 16.8603 55.4452 15.7937C55.9925 14.7095 56.777 13.8527 57.7985 13.2232C58.8201 12.5937 59.9968 12.2789 61.3285 12.2789ZM64.3659 17.8396C64.1652 16.2308 63.1527 15.4265 61.3285 15.4265C60.3799 15.4265 59.6319 15.6713 59.0846 16.1609C58.5556 16.6505 58.2546 17.2101 58.1816 17.8396H64.3659Z" fill="white"/>
<path d="M84.9769 19.6757C85.1958 19.6757 85.3782 19.7456 85.5241 19.8855C85.6701 20.0079 85.7339 20.174 85.7157 20.3838C85.6427 21.3981 85.3052 22.3685 84.7032 23.2953C84.1195 24.2221 83.2256 24.9828 82.0216 25.5773C80.8358 26.1543 79.349 26.4429 77.5613 26.4429C75.1167 26.4429 73.2013 25.7871 71.8148 24.4757C70.4284 23.1467 69.6622 21.3893 69.5163 19.2035C69.4798 18.3292 69.4615 17.5948 69.4615 17.0002C69.4615 16.4057 69.4798 15.6713 69.5163 14.797C69.6622 12.6112 70.4284 10.8625 71.8148 9.55106C73.2013 8.2221 75.1167 7.55762 77.5613 7.55762C79.349 7.55762 80.8358 7.85488 82.0216 8.44942C83.2256 9.02647 84.1195 9.77838 84.7032 10.7052C85.3052 11.6319 85.6427 12.6024 85.7157 13.6166C85.7339 13.8265 85.6701 14.0013 85.5241 14.1412C85.3782 14.2636 85.1958 14.3248 84.9769 14.3248H82.7604C82.578 14.3248 82.4047 14.2636 82.2405 14.1412C82.0763 14.0188 81.976 13.8527 81.9395 13.6429C81.7935 12.856 81.3557 12.1915 80.626 11.6494C79.9145 11.1073 78.893 10.8363 77.5613 10.8363C76.2113 10.8363 75.1623 11.2035 74.4144 11.9379C73.6847 12.6724 73.2834 13.6254 73.2104 14.797C73.1739 15.6713 73.1557 16.4057 73.1557 17.0002C73.1557 17.5948 73.1739 18.3292 73.2104 19.2035C73.2834 20.3751 73.6847 21.3281 74.4144 22.0625C75.1623 22.797 76.2113 23.1642 77.5613 23.1642C78.893 23.1642 79.9237 22.8931 80.6534 22.3511C81.3831 21.809 81.8209 21.1445 81.9668 20.3576C82.0033 20.1478 82.0945 19.9817 82.2405 19.8593C82.4047 19.7369 82.578 19.6757 82.7604 19.6757H84.9769Z" fill="white"/>
<path d="M100.919 25.4724C100.919 25.6647 100.846 25.8308 100.7 25.9707C100.554 26.1106 100.381 26.1806 100.18 26.1806H98.1004C97.8997 26.1806 97.7264 26.1106 97.5805 25.9707C97.4346 25.8308 97.3616 25.6647 97.3616 25.4724V18.8101C97.3616 17.7259 97.0971 16.8778 96.568 16.2658C96.039 15.6538 95.2637 15.3478 94.2421 15.3478C93.2935 15.3478 92.5364 15.6625 91.9709 16.292C91.4054 16.9216 91.1226 17.7609 91.1226 18.8101V25.4724C91.1226 25.6647 91.0497 25.8308 90.9037 25.9707C90.7578 26.1106 90.5845 26.1806 90.3838 26.1806H88.3041C88.1035 26.1806 87.9302 26.1106 87.7842 25.9707C87.6383 25.8308 87.5653 25.6647 87.5653 25.4724V8.26581C87.5653 8.07346 87.6383 7.90734 87.7842 7.76745C87.9302 7.62756 88.1035 7.55762 88.3041 7.55762H90.3838C90.5845 7.55762 90.7578 7.62756 90.9037 7.76745C91.0497 7.90734 91.1226 8.07346 91.1226 8.26581V13.8527C92.2172 12.8035 93.5306 12.2789 95.063 12.2789C97.1244 12.2789 98.6112 12.8472 99.5233 13.9838C100.454 15.1205 100.919 16.5981 100.919 18.4166V25.4724Z" fill="white"/>
<path d="M109.459 12.2789C110.791 12.2789 111.967 12.5849 112.989 13.197C114.011 13.7915 114.795 14.5959 115.342 15.6101C115.908 16.6243 116.191 17.7347 116.191 18.9412V20.1216C116.191 20.3139 116.118 20.48 115.972 20.6199C115.826 20.7598 115.652 20.8297 115.452 20.8297H106.312C106.312 21.5817 106.622 22.1849 107.243 22.6396C107.863 23.0767 108.602 23.2953 109.459 23.2953C110.462 23.2953 111.238 23.0942 111.785 22.692C111.986 22.5522 112.15 22.456 112.277 22.4035C112.405 22.3511 112.578 22.3248 112.797 22.3248H114.986C115.187 22.3248 115.36 22.3948 115.506 22.5347C115.652 22.6571 115.725 22.8057 115.725 22.9806C115.725 23.3478 115.47 23.8112 114.959 24.3707C114.467 24.9303 113.746 25.4199 112.797 25.8396C111.849 26.2418 110.736 26.4429 109.459 26.4429C108.109 26.4429 106.923 26.1456 105.902 25.5511C104.898 24.9565 104.123 24.1259 103.576 23.0593C103.028 21.9926 102.755 20.7598 102.755 19.3609C102.755 18.0494 103.028 16.8603 103.576 15.7937C104.123 14.7095 104.907 13.8527 105.929 13.2232C106.951 12.5937 108.127 12.2789 109.459 12.2789ZM112.496 17.8396C112.296 16.2308 111.283 15.4265 109.459 15.4265C108.51 15.4265 107.762 15.6713 107.215 16.1609C106.686 16.6505 106.385 17.2101 106.312 17.8396H112.496Z" fill="white"/>
<path d="M120.958 20.2789C121.067 21.2931 121.423 22.0538 122.025 22.5609C122.645 23.0505 123.375 23.2953 124.214 23.2953C125.035 23.2953 125.646 23.1817 126.048 22.9543C126.449 22.727 126.823 22.3685 127.169 21.8789C127.315 21.6516 127.452 21.4767 127.58 21.3543C127.726 21.2319 127.89 21.1707 128.072 21.1707H130.152C130.353 21.1707 130.526 21.2407 130.672 21.3806C130.836 21.5205 130.909 21.6866 130.891 21.8789C130.854 22.456 130.59 23.103 130.097 23.8199C129.605 24.5369 128.857 25.1576 127.854 25.6822C126.868 26.1893 125.655 26.4429 124.214 26.4429C122.919 26.4429 121.77 26.1718 120.766 25.6297C119.781 25.0877 118.997 24.362 118.413 23.4527C117.829 22.5259 117.492 21.5205 117.401 20.4363C117.382 20.2265 117.373 19.8767 117.373 19.3871C117.373 18.88 117.382 18.5216 117.401 18.3117C117.492 17.2276 117.82 16.2308 118.386 15.3216C118.969 14.3948 119.763 13.6604 120.766 13.1183C121.77 12.5587 122.919 12.2789 124.214 12.2789C125.655 12.2789 126.868 12.5412 127.854 13.0658C128.857 13.5729 129.605 14.1849 130.097 14.9019C130.59 15.6188 130.854 16.2658 130.891 16.8429C130.909 17.0352 130.836 17.2013 130.672 17.3412C130.526 17.4811 130.353 17.5511 130.152 17.5511H128.072C127.89 17.5511 127.726 17.4899 127.58 17.3675C127.452 17.245 127.315 17.0702 127.169 16.8429C126.823 16.3532 126.449 15.9948 126.048 15.7675C125.646 15.5401 125.035 15.4265 124.214 15.4265C123.375 15.4265 122.645 15.68 122.025 16.1871C121.423 16.6767 121.067 17.4287 120.958 18.4429C120.94 18.6177 120.93 18.9237 120.93 19.3609C120.93 19.7981 120.94 20.1041 120.958 20.2789Z" fill="white"/>
<path d="M136.34 25.4724C136.34 25.6647 136.267 25.8308 136.121 25.9707C135.976 26.1106 135.802 26.1806 135.602 26.1806H133.522C133.321 26.1806 133.148 26.1106 133.002 25.9707C132.856 25.8308 132.783 25.6647 132.783 25.4724V8.26581C132.783 8.07346 132.856 7.90734 133.002 7.76745C133.148 7.62756 133.321 7.55762 133.522 7.55762H135.602C135.802 7.55762 135.976 7.62756 136.121 7.76745C136.267 7.90734 136.34 8.07346 136.34 8.26581V16.5281L140.91 12.9871C141.111 12.8472 141.284 12.7423 141.43 12.6724C141.576 12.5849 141.758 12.5412 141.977 12.5412H144.768C144.951 12.5412 145.106 12.6024 145.234 12.7248C145.361 12.8472 145.425 12.9959 145.425 13.1707C145.425 13.3631 145.325 13.5379 145.124 13.6953L138.748 18.6265L145.726 25.0527C145.909 25.2276 146 25.3937 146 25.5511C146 25.7259 145.936 25.8746 145.808 25.997C145.681 26.1194 145.526 26.1806 145.343 26.1806H142.689C142.306 26.1806 141.932 26.0319 141.567 25.7347L136.34 20.9609V25.4724Z" fill="white"/>
</svg>

<svg xmlns="http://www.w3.org/2000/svg" width="146" height="34" fill="none"><path stroke="#9246FF" stroke-linecap="round" stroke-linejoin="round" stroke-width="4.721" d="M3.095 19.557v-7.535c0-1.67.882-3.215 2.32-4.065l8.262-4.882a4.721 4.721 0 0 1 4.803 0l8.263 4.882a4.721 4.721 0 0 1 2.319 4.065v9.956c0 1.67-.882 3.215-2.32 4.065l-8.262 4.882a4.721 4.721 0 0 1-4.803 0L6.34 26.59"/><circle cx="16.078" cy="17" r="5.902" stroke="#0CC4FF" stroke-width="4.721"/><path fill="#0CC4FF" fill-rule="evenodd" d="m13.345 22.923-5.338 5.338a2.36 2.36 0 1 1-3.338-3.339l5.337-5.337 3.339 3.338Z" clip-rule="evenodd"/><path fill="#fff" d="M53.09 15.06c.036.436.054 1.083.054 1.94s-.018 1.504-.055 1.941c-.146 2.29-.885 4.075-2.216 5.351-1.332 1.26-3.275 1.889-5.829 1.889H38.15a.725.725 0 0 1-.52-.21.667.667 0 0 1-.22-.499V8.528c0-.192.074-.358.22-.498a.725.725 0 0 1 .52-.21h6.758c2.61 0 4.588.638 5.938 1.915 1.35 1.259 2.098 3.034 2.244 5.324Zm-11.986-3.961v11.803h3.803c1.442 0 2.527-.359 3.257-1.076.748-.716 1.158-1.678 1.231-2.885a25.56 25.56 0 0 0 .055-1.94c0-.858-.019-1.505-.055-1.942-.073-1.206-.492-2.168-1.259-2.885-.748-.717-1.87-1.075-3.365-1.075h-3.667Zm20.224 1.18c1.332 0 2.509.306 3.53.918a6.105 6.105 0 0 1 2.354 2.413 6.725 6.725 0 0 1 .848 3.331v1.18a.667.667 0 0 1-.219.499.726.726 0 0 1-.52.21h-9.14c0 .752.31 1.355.931 1.81.62.437 1.36.655 2.216.655 1.004 0 1.78-.2 2.326-.603.201-.14.365-.236.493-.288.128-.053.301-.08.52-.08h2.189c.2 0 .374.07.52.21a.562.562 0 0 1 .219.447c0 .367-.256.83-.766 1.39-.493.56-1.213 1.049-2.162 1.469-.949.402-2.062.603-3.339.603-1.35 0-2.535-.297-3.557-.892a6.031 6.031 0 0 1-2.326-2.492c-.547-1.066-.82-2.3-.82-3.698 0-1.312.273-2.5.82-3.567a6.287 6.287 0 0 1 2.353-2.57c1.022-.63 2.199-.945 3.53-.945Zm3.038 5.56c-.2-1.608-1.213-2.412-3.038-2.412-.948 0-1.696.244-2.243.734-.53.49-.83 1.05-.903 1.679h6.184Zm20.611 1.837a.76.76 0 0 1 .547.21c.146.122.21.288.192.498-.073 1.014-.41 1.985-1.013 2.911-.584.927-1.477 1.688-2.681 2.282-1.186.577-2.673.866-4.46.866-2.445 0-4.36-.656-5.747-1.967-1.387-1.33-2.153-3.087-2.299-5.273A54.33 54.33 0 0 1 69.461 17c0-.594.019-1.329.055-2.203.146-2.186.912-3.934 2.299-5.246 1.386-1.329 3.302-1.993 5.746-1.993 1.788 0 3.275.297 4.46.891 1.205.577 2.099 1.33 2.682 2.256.602.927.94 1.897 1.013 2.912a.617.617 0 0 1-.192.524.822.822 0 0 1-.547.184H82.76a.856.856 0 0 1-.52-.184.76.76 0 0 1-.3-.498c-.147-.787-.584-1.452-1.314-1.994-.712-.542-1.733-.813-3.065-.813-1.35 0-2.399.367-3.147 1.102-.73.734-1.13 1.687-1.204 2.859A54.306 54.306 0 0 0 73.156 17c0 .595.018 1.33.054 2.203.073 1.172.475 2.125 1.204 2.86.748.734 1.797 1.101 3.147 1.101 1.332 0 2.363-.27 3.092-.813.73-.542 1.168-1.206 1.314-1.993a.806.806 0 0 1 .273-.499.856.856 0 0 1 .52-.183h2.217Zm15.942 5.796a.667.667 0 0 1-.219.499.726.726 0 0 1-.52.21H98.1c-.2 0-.374-.07-.52-.21a.667.667 0 0 1-.218-.499V18.81c0-1.084-.265-1.932-.794-2.544-.529-.612-1.304-.918-2.326-.918-.949 0-1.706.314-2.271.944-.566.63-.848 1.469-.848 2.518v6.662a.667.667 0 0 1-.22.499.726.726 0 0 1-.52.21h-2.079c-.2 0-.374-.07-.52-.21a.667.667 0 0 1-.219-.499V8.266c0-.193.073-.359.22-.499a.724.724 0 0 1 .52-.21h2.079c.2 0 .374.07.52.21.146.14.219.306.219.499v5.587c1.094-1.05 2.408-1.574 3.94-1.574 2.061 0 3.548.568 4.46 1.705.931 1.136 1.396 2.614 1.396 4.433v7.055Zm8.54-13.193c1.332 0 2.508.306 3.53.918a6.1 6.1 0 0 1 2.353 2.413 6.72 6.72 0 0 1 .849 3.331v1.18a.667.667 0 0 1-.219.499.727.727 0 0 1-.52.21h-9.14c0 .752.31 1.355.931 1.81.62.437 1.359.655 2.216.655 1.003 0 1.779-.2 2.326-.603a2.76 2.76 0 0 1 .492-.288c.128-.053.301-.08.52-.08h2.189c.201 0 .374.07.52.21a.562.562 0 0 1 .219.447c0 .367-.255.83-.766 1.39-.492.56-1.213 1.049-2.162 1.469-.948.402-2.061.603-3.338.603-1.35 0-2.536-.297-3.557-.892a6.026 6.026 0 0 1-2.326-2.492c-.548-1.066-.821-2.3-.821-3.698 0-1.312.273-2.5.821-3.567a6.28 6.28 0 0 1 2.353-2.57c1.022-.63 2.198-.945 3.53-.945Zm3.037 5.56c-.2-1.608-1.213-2.412-3.037-2.412-.949 0-1.697.244-2.244.734-.529.49-.83 1.05-.903 1.679h6.184Zm8.462 2.44c.109 1.014.465 1.775 1.067 2.282.62.49 1.35.734 2.189.734.821 0 1.432-.113 1.834-.34.401-.228.775-.586 1.121-1.076.146-.227.283-.402.411-.525a.746.746 0 0 1 .492-.183h2.08c.201 0 .374.07.52.21.164.14.237.306.219.498-.037.577-.301 1.224-.794 1.94-.492.718-1.24 1.339-2.243 1.863-.986.507-2.199.76-3.64.76-1.295 0-2.444-.27-3.448-.812a6.421 6.421 0 0 1-2.353-2.177 6.618 6.618 0 0 1-1.012-3.017 13.34 13.34 0 0 1-.028-1.049c0-.507.009-.865.028-1.075a6.625 6.625 0 0 1 .985-2.99 6.283 6.283 0 0 1 2.38-2.204c1.004-.56 2.153-.84 3.448-.84 1.441 0 2.654.263 3.64.788 1.003.507 1.751 1.119 2.243 1.836.493.717.757 1.364.794 1.94a.563.563 0 0 1-.219.5.726.726 0 0 1-.52.21h-2.08a.746.746 0 0 1-.492-.184 2.91 2.91 0 0 1-.411-.525c-.346-.49-.72-.848-1.121-1.075-.402-.228-1.013-.341-1.834-.341-.839 0-1.569.253-2.189.76-.602.49-.958 1.242-1.067 2.256-.018.175-.028.48-.028.918 0 .437.01.743.028.918Zm15.382 5.193a.667.667 0 0 1-.219.499.723.723 0 0 1-.519.21h-2.08a.726.726 0 0 1-.52-.21.667.667 0 0 1-.219-.499V8.266c0-.193.073-.359.219-.499a.725.725 0 0 1 .52-.21h2.08c.2 0 .374.07.519.21.146.14.219.306.219.499v8.262l4.57-3.54c.201-.14.374-.246.52-.316.146-.087.328-.13.547-.13h2.791c.183 0 .338.06.466.183a.597.597 0 0 1 .191.446c0 .192-.1.367-.301.524l-6.376 4.931 6.978 6.427c.183.175.274.34.274.498a.594.594 0 0 1-.192.446.645.645 0 0 1-.465.184h-2.654c-.383 0-.757-.15-1.122-.446l-5.227-4.774v4.511Z"/></svg>
